icons/svgs/calendar-check-solid.svg

<svg width="24" height="24" viewBox="0 0 24 24" fill="none" xmlns="http://www.w3.org/2000/svg">
<path d="M8.25 2C8.91406 2 9.5 2.58594 9.5 3.25V4.5H14.5V3.25C14.5 2.58594 15.0469 2 15.75 2C16.4141 2 17 2.58594 17 3.25V4.5H18.875C19.8906 4.5 20.75 5.35938 20.75 6.375V8.25H3.25V6.375C3.25 5.35938 4.07031 4.5 5.125 4.5H7V3.25C7 2.58594 7.54688 2 8.25 2ZM3.25 9.5H20.75V20.125C20.75 21.1797 19.8906 22 18.875 22H5.125C4.07031 22 3.25 21.1797 3.25 20.125V9.5ZM16.1016 13.9141C16.4531 13.5625 16.4531 12.9766 16.1016 12.625C15.7109 12.2344 15.125 12.2344 14.7734 12.625L11.0625 16.3359L9.22656 14.5C8.83594 14.1094 8.25 14.1094 7.89844 14.5C7.50781 14.8516 7.50781 15.4375 7.89844 15.7891L10.3984 18.2891C10.75 18.6797 11.3359 18.6797 11.7266 18.2891L16.1016 13.9141Z" fill="black"/>
</svg>

<svg xmlns="http://www.w3.org/2000/svg" width="24" height="24" fill="currentColor" class="icon-calendar-check-solid" viewBox="0 0 24 24">
  <mask id="a" width="18" height="20" x="3" y="2" maskUnits="userSpaceOnUse" style="mask-type:alpha">
    <path d="M8.25 2c.664 0 1.25.586 1.25 1.25V4.5h5V3.25c0-.664.547-1.25 1.25-1.25.664 0 1.25.586 1.25 1.25V4.5h1.875c1.016 0 1.875.86 1.875 1.875V8.25H3.25V6.375c0-1.016.82-1.875 1.875-1.875H7V3.25C7 2.586 7.547 2 8.25 2m-5 7.5h17.5v10.625c0 1.055-.86 1.875-1.875 1.875H5.125a1.85 1.85 0 0 1-1.875-1.875zm12.852 4.414a.92.92 0 0 0 0-1.289c-.391-.39-.977-.39-1.329 0l-3.71 3.71L9.227 14.5c-.391-.39-.977-.39-1.329 0a.856.856 0 0 0 0 1.29l2.5 2.5c.352.39.938.39 1.329 0z"/>
  </mask>
  <g mask="url(#a)">
    <path d="M0 0h24v24H0z"/>
  </g>
</svg>
